images/icons/generic-code.svg

<svg fill="none" height="24" viewBox="0 0 24 24" width="24" xmlns="http://www.w3.org/2000/svg" xmlns:xlink="http://www.w3.org/1999/xlink"><clipPath id="a"><path d="m0 0h24v24h-24z"/></clipPath><g clip-path="url(#a)"><path d="m17.875 18.6101c-.2292.2292-.5156.3438-.8594.3438-.3437 0-.6406-.125-.8906-.375s-.375-.5469-.375-.8906c0-.3438.125-.6407.375-.8907l4.8438-4.8438-4.875-4.87503c-.2292-.22917-.3386-.51563-.3282-.85938.0104-.34376.1302-.63022.3594-.85939s.5208-.34375.875-.34375.6458.11458.875.34375l5.75 5.7501c.25.25.375.5416.375.875 0 .3333-.125.625-.375.875zm-11.75 0-5.75-5.75c-.25-.25-.375-.5417-.375-.875 0-.3334.125-.625.375-.875l5.75-5.7501c.22917-.22917.52083-.34896.875-.35937.35417-.01042.65625.10937.90625.35937.25.25001.375.54688.375.89064 0 .34375-.125.64063-.375.89063l-4.875 4.87503 4.875 4.8751c.22917.2291.33854.5156.32813.8594-.01042.3437-.13021.6302-.35938.8593-.22917.2292-.52083.3438-.875.3438s-.64583-.1146-.875-.3438z" fill="#fff"/></g></svg>

<svg width="24" height="24" viewBox="0 0 24 24" fill="none" xmlns="http://www.w3.org/2000/svg">
<g clip-path="url(#clip0_1436_674)">
<path d="M17.875 18.6101C17.6458 18.8393 17.3594 18.9539 17.0156 18.9539C16.6719 18.9539 16.375 18.8289 16.125 18.5789C15.875 18.3289 15.75 18.032 15.75 17.6883C15.75 17.3445 15.875 17.0476 16.125 16.7976L20.9688 11.9538L16.0938 7.07877C15.8646 6.8496 15.7552 6.56314 15.7656 6.21939C15.776 5.87563 15.8958 5.58917 16.125 5.36C16.3542 5.13083 16.6458 5.01625 17 5.01625C17.3542 5.01625 17.6458 5.13083 17.875 5.36L23.625 11.1101C23.875 11.3601 24 11.6517 24 11.9851C24 12.3184 23.875 12.6101 23.625 12.8601L17.875 18.6101ZM6.125 18.6101L0.375 12.8601C0.125 12.6101 0 12.3184 0 11.9851C0 11.6517 0.125 11.3601 0.375 11.1101L6.125 5.36C6.35417 5.13083 6.64583 5.01104 7 5.00063C7.35417 4.99021 7.65625 5.11 7.90625 5.36C8.15625 5.61001 8.28125 5.90688 8.28125 6.25064C8.28125 6.59439 8.15625 6.89127 7.90625 7.14127L3.03125 12.0163L7.90625 16.8914C8.13542 17.1205 8.24479 17.407 8.23438 17.7508C8.22396 18.0945 8.10417 18.381 7.875 18.6101C7.64583 18.8393 7.35417 18.9539 7 18.9539C6.64583 18.9539 6.35417 18.8393 6.125 18.6101Z" fill="white"/>
</g>
<defs>
<clipPath id="clip0_1436_674">
<rect width="24" height="24" fill="white"/>
</clipPath>
</defs>
</svg>
